docs/img/svgicons/topics/magnifier.svg

<svg width="800" height="800" fill="none" xmlns="http://www.w3.org/2000/svg"><g clip-path="url(#clip0_525_610)"><path d="M14.6 750.05l35.35 35.35c19.45 19.45 51.25 19.45 70.7 0L304.4 601.65C354 632.3 412.45 650 475 650c179.5 0 325-145.5 325-325S654.5 0 475 0 150 145.5 150 325c0 62.55 17.7 121 48.35 170.6L14.6 679.35c-19.45 19.45-19.45 51.25 0 70.7zM475 550c-60.1 0-116.6-23.4-159.1-65.9-42.5-42.5-65.9-99-65.9-159.1 0-60.1 23.4-116.6 65.9-159.1 42.5-42.5 99-65.9 159.1-65.9 60.1 0 116.6 23.4 159.1 65.9 42.5 42.5 65.9 99 65.9 159.1 0 60.1-23.4 116.6-65.9 159.1-42.5 42.5-99 65.9-159.1 65.9z" fill="#731C00"/></g><defs><clipPath id="clip0_525_610"><path fill="#fff" d="M0 0h800v800H0z"/></clipPath></defs></svg>

<svg width="800" height="800" viewBox="0 0 800 800" fill="none" xmlns="http://www.w3.org/2000/svg">
<g clip-path="url(#clip0_525_610)">
<path d="M14.6002 750.05L49.9502 785.4C69.4002 804.85 101.2 804.85 120.65 785.4L304.4 601.65C354 632.3 412.45 650 475 650C654.5 650 800 504.5 800 325C800 145.5 654.5 0 475 0C295.5 0 150 145.5 150 325C150 387.55 167.7 446 198.35 495.6L14.6002 679.35C-4.8498 698.8 -4.8498 730.6 14.6002 750.05ZM475 550C414.9 550 358.4 526.6 315.9 484.1C273.4 441.6 250 385.1 250 325C250 264.9 273.4 208.4 315.9 165.9C358.4 123.4 414.9 100 475 100C535.1 100 591.6 123.4 634.1 165.9C676.6 208.4 700 264.9 700 325C700 385.1 676.6 441.6 634.1 484.1C591.6 526.6 535.1 550 475 550Z" fill="#731C00"/>
</g>
<defs>
<clipPath id="clip0_525_610">
<rect width="800" height="800" fill="white"/>
</clipPath>
</defs>
</svg>
